src/assets/img/showcase/Projects.svg

<svg fill="none" height="300" viewBox="0 0 349 300" width="349" xmlns="http://www.w3.org/2000/svg" xmlns:xlink="http://www.w3.org/1999/xlink"><linearGradient id="a"><stop offset="0" stop-color="#f09343"/><stop offset="1" stop-color="#ff2cfb"/></linearGradient><linearGradient id="b" gradientUnits="userSpaceOnUse" x1="-.000126" x2="339.937" xlink:href="#a" y1="7.00001" y2="138.523"/><linearGradient id="c" gradientUnits="userSpaceOnUse" x1="9" x2="348.937" xlink:href="#a" y1=".000012" y2="131.523"/><clipPath id="d"><path d="m10 2h339v291.509h-339z"/></clipPath><path d="m9.15344 1.14752-8.15344 6.34157v160.64991l338.832 130.724 8.139-6.33-8.933-153.778z" fill="url(#b)"/><path d="m9.15344 1.14752-8.15344 6.34157v160.64991l338.832 130.724 8.139-6.33-8.933-153.778z" fill="#000" fill-opacity=".5"/><g stroke="#fff"><path d="m9.15344 1.14752-8.15344 6.34157v160.64991l338.832 130.724 8.139-6.33-8.933-153.778z" stroke-linejoin="bevel" stroke-width="2"/><path d="m348 291.542v-159.783l-338-130.30176v159.68176z" fill="url(#c)" stroke-linejoin="bevel" stroke-width="2"/><path d="m1 168 9-7" stroke-width="2"/><g clip-path="url(#d)" stroke-linejoin="bevel" stroke-width="3"><path d="m359 139.804-349-134.60405" stroke-opacity=".15"/><path d="m359 136.604-349-134.604" stroke-opacity=".02"/><path d="m359 146.209-349-134.6046" stroke-opacity=".15"/><path d="m359 143.009-349-134.60458" stroke-opacity=".02"/><path d="m359 152.613-349-134.6043" stroke-opacity=".15"/><path d="m359 149.413-349-134.6043" stroke-opacity=".02"/><path d="m359 159.018-349-134.6049" stroke-opacity=".15"/><path d="m359 155.818-349-134.6049" stroke-opacity=".02"/><path d="m359 165.422-349-134.6046" stroke-opacity=".15"/><path d="m359 162.222-349-134.6046" stroke-opacity=".02"/><path d="m359 171.826-349-134.6042" stroke-opacity=".15"/><path d="m359 168.626-349-134.6041" stroke-opacity=".02"/><path d="m359 178.231-349-134.6048" stroke-opacity=".15"/><path d="m359 175.031-349-134.6047" stroke-opacity=".02"/><path d="m359 184.635-349-134.6045" stroke-opacity=".15"/><path d="m359 181.435-349-134.6044" stroke-opacity=".02"/><path d="m359 191.039-349-134.6041" stroke-opacity=".15"/><path d="m359 187.839-349-134.604" stroke-opacity=".02"/><path d="m359 197.444-349-134.6046" stroke-opacity=".15"/><path d="m359 194.244-349-134.6046" stroke-opacity=".02"/><path d="m359 203.848-349-134.6043" stroke-opacity=".15"/><path d="m359 200.648-349-134.6043" stroke-opacity=".02"/><path d="m359 210.252-349-134.6039" stroke-opacity=".15"/><path d="m359 207.053-349-134.6049" stroke-opacity=".02"/><path d="m359 216.657-349-134.6045" stroke-opacity=".15"/><path d="m359 213.457-349-134.6045" stroke-opacity=".02"/><path d="m359 223.061-349-134.6042" stroke-opacity=".15"/><path d="m359 219.861-349-134.6042" stroke-opacity=".02"/><path d="m359 229.466-349-134.6048" stroke-opacity=".15"/><path d="m359 226.266-349-134.6047" stroke-opacity=".02"/><path d="m359 235.87-349-134.604" stroke-opacity=".15"/><path d="m359 232.67-349-134.6043" stroke-opacity=".02"/><path d="m359 242.274-349-134.604" stroke-opacity=".15"/><path d="m359 239.074-349-134.604" stroke-opacity=".02"/><path d="m359 248.679-349-134.605" stroke-opacity=".15"/><path d="m359 245.479-349-134.605" stroke-opacity=".02"/><path d="m359 255.083-349-134.604" stroke-opacity=".15"/><path d="m359 251.883-349-134.604" stroke-opacity=".02"/><path d="m359 261.487-349-134.604" stroke-opacity=".15"/><path d="m359 258.288-349-134.605" stroke-opacity=".02"/><path d="m359 267.892-349-134.605" stroke-opacity=".15"/><path d="m359 264.692-349-134.605" stroke-opacity=".02"/><path d="m359 274.296-349-134.604" stroke-opacity=".15"/><path d="m359 271.096-349-134.604" stroke-opacity=".02"/><path d="m359 280.701-349-134.605" stroke-opacity=".15"/><path d="m359 277.501-349-134.605" stroke-opacity=".02"/><path d="m359 287.105-349-134.605" stroke-opacity=".15"/><path d="m359 283.905-349-134.604" stroke-opacity=".02"/><path d="m359 293.509-349-134.604" stroke-opacity=".15"/><path d="m359 290.309-349-134.604" stroke-opacity=".02"/></g></g><path d="m35.1693 82.4488c0-.4266.0398-.7314.1196-.9143.1196-.2104.3189-.4331.598-.668l13.7535-9.474c1.7142-1.1808 2.8702-2.3826 3.4682-3.6051.6379-1.2074.9568-2.5151.9568-3.9231 0-1.792-.4784-3.4251-1.4352-4.8994-.9567-1.5169-2.3121-2.6099-4.0662-3.279-1.5946-.6082-2.95-.5705-4.0663.1131-1.0763.6561-1.9135 1.7661-2.5115 3.33-.1594.4085-.4186.5443-.7773.4075-.1994-.076-.4186-.2237-.6578-.4429l-5.3818-4.7408c-.4385-.3806-.6578-.7415-.6578-1.0829 0-.2133.0598-.4251.1794-.6355.5581-1.1525 1.2558-2.1664 2.0929-3.0417.8771-.9028 1.8936-1.5818 3.0497-2.0368 1.196-.4825 2.5115-.7061 3.9467-.6706 1.475.0079 3.0696.3388 4.7838.9926 2.073.7907 3.9466 1.8254 5.621 3.104 1.7142 1.2939 3.1693 2.7449 4.3652 4.353 1.196 1.6082 2.1129 3.3659 2.7507 5.2732.6777 1.8798 1.0166 3.8224 1.0166 5.8278 0 2.688-.5183 4.9863-1.5548 6.8949-1.0365 1.866-2.6311 3.5405-4.7838 5.0234l-9.3284 6.4259 15.368 5.8617c.7973.3041 1.196.8828 1.196 1.7362v5.248c0 .8533-.3987 1.1279-1.196.8238l-25.6533-9.7848c-.7973-.3041-1.1959-.8828-1.1959-1.7362zm33.9866 12.9634c0-.4267.0399-.7315.1196-.9144.1196-.2104.3189-.433.598-.6679l13.7535-9.4741c1.7142-1.1808 2.8703-2.3825 3.4683-3.6051.6378-1.2073.9567-2.515.9567-3.923 0-1.792-.4784-3.4252-1.4351-4.8994-.9568-1.517-2.3122-2.61-4.0663-3.279-1.5946-.6082-2.95-.5706-4.0662.113-1.0764.6561-1.9135 1.7662-2.5115 3.3301-.1595.4085-.4186.5443-.7774.4075-.1993-.0761-.4186-.2237-.6578-.4429l-5.3818-4.7408c-.4385-.3806-.6578-.7416-.6578-1.0829 0-.2133.0598-.4252.1794-.6356.5582-1.1524 1.2558-2.1663 2.093-3.0417.877-.9028 1.8936-1.5817 3.0497-2.0367 1.1959-.4825 2.5115-.7061 3.9466-.6707 1.475.008 3.0696.3388 4.7838.9927 2.073.7907 3.9467 1.8253 5.621 3.104 1.7142 1.2938 3.1693 2.7448 4.3653 4.353 1.1959 1.6082 2.1128 3.3659 2.7507 5.2732.6777 1.8798 1.0165 3.8224 1.0165 5.8277 0 2.688-.5182 4.9863-1.5547 6.895-1.0365 1.866-2.6311 3.5404-4.7838 5.0233l-9.3285 6.4259 15.368 5.8616c.7973.304 1.196.883 1.196 1.736v5.248c0 .854-.3987 1.128-1.196.824l-25.6532-9.785c-.7973-.304-1.196-.882-1.196-1.7358zm49.2061 25.1688c-2.591-.989-4.963-2.384-7.116-4.187-2.113-1.787-3.927-3.929-5.441-6.427-1.515-2.541-2.691-5.4-3.529-8.578-.797-3.2052-1.196-6.6853-1.196-10.44 0-3.7973.439-6.958 1.316-9.4822.917-2.5516 2.153-4.4909 3.707-5.8179 1.555-1.3269 3.369-2.0857 5.442-2.2764 2.113-.1754 4.385.2006 6.817 1.1282 2.432.9275 4.684 2.2773 6.757 4.0493 2.113 1.7872 3.947 3.9374 5.502 6.4504 1.554 2.513 2.77 5.3874 3.647 8.6233.917 3.2084 1.376 6.7113 1.376 10.5083 0 3.755-.419 6.923-1.256 9.505-.797 2.555-1.954 4.525-3.468 5.909-1.515 1.343-3.349 2.094-5.502 2.254-2.113.175-4.465-.231-7.056-1.219zm0-7.552c2.671 1.018 4.844.567 6.518-1.354 1.674-1.964 2.512-5.528 2.512-10.69 0-5.0776-.818-9.2293-2.452-12.4554-1.635-3.2688-3.827-5.4277-6.578-6.4769s-4.943-.5629-6.578 1.459c-1.634 1.9793-2.451 5.5076-2.451 10.5849 0 5.1627.837 9.3644 2.511 12.6064 1.674 3.198 3.847 5.307 6.518 6.326zm32.183.627-9.208-3.512c-.798-.304-1.196-.883-1.196-1.736v-4.48c0-.854.398-1.128 1.196-.824l9.208 3.512v-9.8558c0-.8533.399-1.1279 1.196-.8238l4.186 1.5966c.798.3041 1.196.8828 1.196 1.7361v9.8559l9.209 3.513c.797.304 1.196.882 1.196 1.736v4.48c0 .853-.399 1.128-1.196.824l-9.209-3.513v9.856c0 .853-.398 1.128-1.196.824l-4.186-1.597c-.797-.304-1.196-.882-1.196-1.736zm-116.7062 5.725c0-.32.1495-.423.4485-.309l6.0321 2.301c.882.337 1.6444.763 2.2872 1.281.6578.523 1.196 1.104 1.6146 1.743.4335.646.7549 1.328.9642 2.048s.314 1.448.314 2.184c0 .704-.1047 1.328-.314 1.872s-.5232.969-.9418 1.273c-.4036.31-.9119.484-1.5248.522-.613.039-1.3305-.099-2.1528-.413l-3.8121-1.454v5.904c0 .32-.1495.423-.4485.309l-2.0181-.77c-.299-.114-.4485-.331-.4485-.651zm6.1666 9.36c1.7192.656 2.5788.224 2.5788-1.296s-.8596-2.608-2.5788-3.264l-3.2515-1.24v4.56zm7.8047-4.031c0-.32.1495-.423.4485-.309l5.7181 2.181c1.6594.633 2.9451 1.532 3.857 2.696.9119 1.163 1.3679 2.481 1.3679 3.953 0 .704-.1121 1.286-.3364 1.744-.2242.443-.5307.782-.9194 1.017-.3737.242-.8222.375-1.3454.399-.5083.03-1.054-.026-1.637-.168l4.8212 8.847c.0598.103.0897.202.0897.298 0 .176-.0972.227-.2915.153l-2.7806-1.061c-.1645-.063-.284-.132-.3588-.209-.0747-.092-.157-.22-.2467-.382l-4.9333-9.057-.5382-.206v7.056c0 .32-.1495.423-.4484.309l-2.0182-.77c-.299-.114-.4485-.331-.4485-.651zm6.3236 8.268c.6578.251 1.1735.304 1.5473.159.3737-.146.5606-.499.5606-1.059s-.1869-1.055-.5606-1.485c-.3738-.431-.8895-.772-1.5473-1.023l-3.4085-1.3v3.408zm14.5116 16.239c-1.0465-.399-2.0406-.954-2.9824-1.665-.9418-.727-1.7715-1.588-2.4891-2.582-.7176-.993-1.2856-2.106-1.7042-3.338-.4186-1.247-.6279-2.591-.6279-4.031 0-1.424.2168-2.589.6503-3.496.4335-.923 1.0091-1.607 1.7267-2.053.7175-.447 1.5472-.674 2.489-.683.9419-.009 1.921.181 2.9376.568 1.0166.388 1.9958.946 2.9376 1.673s1.7715 1.588 2.4891 2.581c.7175.994 1.2931 2.118 1.7266 3.371.4336 1.237.6503 2.568.6503 3.992 0 1.44-.2093 2.624-.6279 3.552-.4185.913-.9866 1.592-1.7042 2.038-.7176.447-1.5473.674-2.4891.683-.9418-.007-1.9359-.21-2.9824-.61zm0-2.928c.5531.211 1.1063.318 1.6594.321.5681-.007 1.0764-.157 1.5248-.45.4485-.293.8148-.745 1.0988-1.357.2841-.612.4261-1.421.4261-2.429s-.142-1.927-.4261-2.755c-.284-.828-.6578-1.563-1.1212-2.204-.4485-.635-.9567-1.164-1.5248-1.589-.5532-.435-1.0988-.755-1.637-.961-.5382-.205-1.0913-.304-1.6594-.296-.5531-.003-1.0614.139-1.5248.426-.4485.293-.8148.745-1.0988 1.357-.284.611-.4261 1.421-.4261 2.429s.1346 1.924.4037 2.746c.284.829.6503 1.56 1.0988 2.195.4484.635.9492 1.17 1.5024 1.605.568.425 1.1361.746 1.7042.962zm11.0061 1.606c.1046-.008.1943.003.2691.031.1345.051.2317.176.2915.375.2541.865.6054 1.591 1.0539 2.178s1.0315 1.018 1.7491 1.291c.6727.257 1.2483.213 1.7267-.133.4783-.362.7175-1.086.7175-2.174v-7.944l-4.8212-1.839c-.299-.114-.4484-.331-.4484-.651v-1.968c0-.32.1494-.423.4484-.309l8.8576 3.378c.299.114.4485.331.4485.651v.912c0 .16-.0225.272-.0673.335-.0449.063-.1345.116-.2691.161l-1.2333.442v8.448c0 .912-.1271 1.671-.3812 2.278-.2542.607-.6204 1.06-1.0988 1.357-.4635.303-1.0241.458-1.6818.463-.6578-.011-1.3903-.171-2.1976-.479-.7475-.285-1.4202-.645-2.0182-1.081-.583-.431-1.1062-.918-1.5697-1.463-.4634-.545-.867-1.131-1.2109-1.758-.3289-.637-.6054-1.295-.8297-1.972-.0299-.092-.0448-.146-.0448-.162s0-.04 0-.072c0-.176.0747-.259.2242-.25zm12.372-6.321c0-.32.1495-.423.4485-.308l9.9341 3.789c.299.114.448.331.448.651v2.016c0 .288-.134.38-.403.278l-7.5125-2.866v3.576l5.9875 2.284c.299.114.448.331.448.651v1.968c0 .32-.149.423-.448.309l-5.9875-2.284v4.44l7.7815 2.968c.299.114.448.331.448.651v1.968c0 .32-.149.423-.448.309l-10.2481-3.908c-.299-.115-.4485-.332-.4485-.652zm25.8776 23.311c.105.2.157.348.157.444 0 .144-.067.246-.202.307-.433.234-.859.424-1.278.568-.404.134-.837.209-1.301.224-.448.021-.934-.02-1.457-.124-.523-.103-1.114-.281-1.772-.532-1.046-.399-2.04-.962-2.982-1.689s-1.772-1.588-2.489-2.582c-.718-.993-1.286-2.106-1.704-3.338-.419-1.247-.628-2.583-.628-4.007s.217-2.589.65-3.496c.449-.917 1.039-1.596 1.772-2.036.747-.435 1.599-.654 2.556-.657.972.002 1.973.2 3.005.594.658.251 1.255.543 1.794.876.553.323 1.054.666 1.502 1.029.449.363.852.741 1.211 1.134.359.377.68.748.964 1.112.15.185.224.341.224.469 0 .08-.044.175-.134.285l-1.211 1.218c-.075.052-.135.093-.179.124-.03.02-.083.016-.157-.012-.09-.034-.187-.119-.292-.255-.583-.751-1.166-1.373-1.749-1.867-.568-.505-1.211-.894-1.928-1.168-.583-.222-1.174-.336-1.772-.34-.583-.014-1.114.119-1.592.401-.463.271-.845.718-1.144 1.34-.284.611-.426 1.421-.426 2.429s.142 1.934.426 2.779c.284.828.658 1.563 1.122 2.203.463.625.979 1.158 1.547 1.599.583.43 1.158.754 1.726.97.494.188.927.306 1.301.352.374.031.71.015 1.009-.047.314-.056.591-.143.83-.259.254-.127.501-.257.74-.39.119-.082.247-.098.381-.047.12.046.232.169.336.369zm6.286-8.595-4.261-1.625c-.299-.114-.448-.331-.448-.651v-1.968c0-.32.149-.423.448-.309l11.437 4.362c.299.114.448.331.448.651v1.968c0 .32-.149.423-.448.309l-4.261-1.625v13.392c0 .32-.15.423-.449.309l-2.018-.77c-.299-.114-.448-.331-.448-.651zm10.542 12.685c.105-.04.209-.04.314 0 .075.029.134.068.179.117s.098.141.157.275c.434 1.03.942 1.84 1.525 2.43.583.574 1.211.99 1.884 1.247.613.233 1.121.259 1.525.077.418-.192.628-.592.628-1.2 0-.656-.262-1.292-.785-1.908-.509-.626-1.346-1.345-2.512-2.158-.523-.359-1.039-.772-1.547-1.238-.508-.482-.964-1-1.368-1.554-.389-.564-.703-1.156-.942-1.775-.239-.635-.359-1.289-.359-1.961 0-.72.12-1.322.359-1.807.254-.479.606-.833 1.054-1.062.449-.245.979-.354 1.592-.329.628.016 1.316.166 2.063.451.628.24 1.196.529 1.705.866.523.344.986.713 1.39 1.107.403.394.762.811 1.076 1.25.314.44.591.881.83 1.325.09.162.134.283.134.363 0 .096-.059.177-.179.244l-1.57.793c-.119.05-.224.058-.314.024-.164-.063-.291-.183-.381-.361-.329-.638-.702-1.18-1.121-1.628-.419-.464-.964-.824-1.637-1.08-.239-.092-.478-.151-.718-.178-.239-.027-.456-.006-.65.064-.179.06-.329.171-.448.333-.105.152-.157.364-.157.636 0 .544.231 1.088.695 1.633.478.551 1.218 1.177 2.22 1.879.792.558 1.48 1.108 2.063 1.651.583.542 1.069 1.096 1.457 1.66.389.564.673 1.16.853 1.789.194.618.291 1.287.291 2.007 0 .704-.135 1.317-.404 1.838-.254.511-.62.899-1.098 1.165-.464.271-1.024.409-1.682.414-.643.011-1.353-.132-2.13-.428-.703-.268-1.368-.61-1.996-1.025-.613-.426-1.181-.891-1.704-1.394-.509-.514-.957-1.061-1.346-1.642-.389-.58-.703-1.172-.942-1.775-.06-.151-.089-.266-.089-.346 0-.144.082-.233.246-.266zm18.198 6.942c.104-.041.209-.041.314-.001.074.029.134.068.179.117s.097.141.157.276c.434 1.029.942 1.839 1.525 2.429.583.575 1.211.99 1.884 1.247.612.233 1.121.259 1.524.077.419-.192.628-.592.628-1.2 0-.656-.261-1.292-.785-1.908-.508-.625-1.345-1.345-2.511-2.158-.523-.359-1.039-.772-1.547-1.238-.509-.482-.965-1-1.368-1.553-.389-.565-.703-1.156-.942-1.776-.239-.635-.359-1.289-.359-1.961 0-.72.12-1.322.359-1.807.254-.479.605-.833 1.054-1.062.448-.245.979-.354 1.592-.328.628.015 1.316.165 2.063.45.628.24 1.196.529 1.704.866.523.344.987.713 1.391 1.107.403.394.762.811 1.076 1.25.314.44.59.882.83 1.325.089.162.134.283.134.363 0 .096-.06.177-.179.244l-1.57.793c-.12.05-.224.058-.314.024-.164-.062-.291-.183-.381-.361-.329-.638-.703-1.18-1.121-1.628-.419-.463-.965-.824-1.637-1.08-.239-.091-.479-.151-.718-.178s-.456-.006-.65.064c-.18.06-.329.171-.449.333-.104.152-.157.364-.157.636 0 .544.232 1.088.696 1.633.478.551 1.218 1.177 2.22 1.879.792.558 1.48 1.109 2.063 1.651s1.068 1.096 1.457 1.66.673 1.16.852 1.789c.195.618.292 1.287.292 2.007 0 .704-.135 1.317-.404 1.838-.254.511-.62.899-1.099 1.165-.463.271-1.024.409-1.681.415-.643.01-1.353-.133-2.131-.429-.702-.268-1.368-.61-1.996-1.025-.612-.426-1.181-.891-1.704-1.394-.508-.514-.957-1.061-1.345-1.641-.389-.581-.703-1.172-.942-1.776-.06-.151-.09-.266-.09-.346 0-.144.083-.233.247-.266zm11.534-6.713c0-.32.15-.423.449-.309l2.018.77c.299.114.449.331.449.651v9.192c0 .832.089 1.57.269 2.215.179.628.426 1.178.74 1.65.314.456.68.843 1.098 1.163.419.304.86.544 1.323.721.464.176.905.273 1.323.288.419 0 .785-.108 1.099-.325.314-.232.561-.594.74-1.085.18-.508.269-1.178.269-2.01v-9.192c0-.32.15-.423.449-.309l2.018.77c.299.114.448.331.448.651v8.952c0 2.576-.56 4.274-1.681 5.095-1.107.826-2.661.857-4.665.093-2.003-.764-3.565-1.984-4.686-3.66-1.107-1.67-1.66-3.793-1.66-6.369zm15.66 5.973c0-.32.15-.423.449-.309l5.718 2.181c1.45.554 2.594 1.358 3.431 2.413s1.256 2.223 1.256 3.503c0 .8-.165 1.409-.494 1.828-.328.418-.71.713-1.143.884.927.769 1.644 1.611 2.153 2.525.523.903.784 1.931.784 3.083 0 .656-.119 1.234-.358 1.735-.225.491-.561.874-1.009 1.151-.449.277-1.002.418-1.66.423-.643.011-1.39-.146-2.242-.471l-6.436-2.455c-.299-.114-.449-.331-.449-.651zm6.324 15.804c1.002.382 1.704.45 2.108.204.419-.256.628-.712.628-1.368s-.209-1.272-.628-1.848c-.404-.586-1.106-1.07-2.108-1.452l-3.408-1.3v4.464zm-.919-7.694c.732.279 1.315.381 1.749.307.448-.085.673-.48.673-1.184s-.225-1.261-.673-1.672c-.434-.422-1.017-.772-1.749-1.051l-2.489-.95v3.6zm10.362-2.096c.044-.303.239-.389.583-.258l1.637.625c.164.062.284.148.358.256.075.109.142.255.202.437l4.104 13.398 4.103-10.267c.06-.137.128-.232.202-.283.075-.052.195-.046.359.017l1.637.624c.344.131.538.365.583.703l1.704 16.49c0 .32-.149.423-.448.308l-2.086-.795c-.284-.108-.433-.325-.448-.651l-.83-9.532-3.319 7.95c-.059.137-.127.231-.201.283-.075.051-.195.046-.359-.017l-1.794-.684c-.165-.063-.284-.149-.359-.257-.075-.109-.142-.254-.202-.437l-3.319-10.482-.829 8.899c-.015.315-.165.418-.449.309l-2.085-.795c-.299-.114-.449-.331-.449-.651zm17.073 20.384c0-.32.15-.423.449-.309l2.22.847v-10.944l-1.996-.761c-.299-.114-.448-.331-.448-.651v-1.968c0-.32.149-.423.448-.309l6.907 2.634c.299.114.448.331.448.651v1.968c0 .32-.149.423-.448.309l-1.996-.761v10.944l2.22.847c.299.114.448.331.448.651v1.968c0 .32-.149.423-.448.309l-7.355-2.806c-.299-.114-.449-.331-.449-.651zm14.412-5.927-4.261-1.625c-.298-.114-.448-.331-.448-.651v-1.968c0-.32.15-.423.448-.309l11.437 4.362c.299.114.448.331.448.651v1.968c0 .32-.149.423-.448.309l-4.261-1.625v13.392c0 .32-.149.423-.448.309l-2.018-.77c-.299-.114-.449-.331-.449-.651zm13.84 5.279-4.261-1.625c-.299-.114-.448-.331-.448-.651v-1.968c0-.32.149-.423.448-.309l11.437 4.362c.299.114.448.331.448.651v1.968c0 .32-.149.423-.448.309l-4.261-1.625v13.392c0 .32-.149.423-.448.309l-2.019-.77c-.299-.114-.448-.331-.448-.651zm9.575 1.204c0-.32.15-.423.449-.309l9.934 3.79c.299.114.448.331.448.651v2.016c0 .288-.134.38-.403.278l-7.513-2.866v3.576l5.988 2.284c.299.114.448.331.448.651v1.968c0 .32-.149.423-.448.309l-5.988-2.284v4.44l7.782 2.968c.299.114.448.331.448.651v1.968c0 .32-.149.423-.448.309l-10.248-3.909c-.299-.114-.449-.331-.449-.651zm13.446 5.129c0-.32.15-.423.449-.309l4.215 1.608c1.077.411 2.116.967 3.117 1.669 1.002.686 1.884 1.51 2.646 2.473.778.969 1.391 2.074 1.839 3.318.464 1.232.695 2.601.695 4.105 0 1.52-.231 2.727-.695 3.623-.448.884-1.061 1.515-1.839 1.89-.762.381-1.644.533-2.646.455-1.001-.078-2.04-.322-3.117-.733l-4.215-1.608c-.299-.114-.449-.331-.449-.651zm4.418 15.077c.777.296 1.502.477 2.175.542.672.064 1.248-.028 1.726-.278.479-.249.853-.667 1.122-1.252.284-.596.426-1.398.426-2.406s-.142-1.91-.426-2.706c-.269-.807-.651-1.52-1.144-2.14-.478-.615-1.054-1.146-1.727-1.595-.657-.443-1.375-.813-2.152-1.109l-1.503-.573v10.944z" fill="#fff"/></svg>

<?xml version="1.0" encoding="utf-8"?>
<!-- Generator: Adobe Illustrator 26.1.0, SVG Export Plug-In . SVG Version: 6.00 Build 0)  -->
<svg version="1.1" id="Layer_1" xmlns="http://www.w3.org/2000/svg" xmlns:xlink="http://www.w3.org/1999/xlink" x="0px" y="0px"
	 viewBox="0 0 349 300" style="enable-background:new 0 0 349 300;" xml:space="preserve">
<style type="text/css">
	.st0{fill:url(#SVGID_1_);}
	.st1{fill-opacity:0.5;}
	.st2{fill:none;stroke:#FFFFFF;stroke-width:2;stroke-linejoin:bevel;}
	.st3{fill:url(#SVGID_00000085966056870939596490000000330880574668026780_);stroke:#FFFFFF;stroke-width:2;stroke-linejoin:bevel;}
	.st4{fill:none;stroke:#FFFFFF;stroke-width:2;}
	.st5{clip-path:url(#SVGID_00000181060272256114367230000015278788437125108138_);}
	.st6{fill:none;stroke:#FFFFFF;stroke-width:3;stroke-linejoin:bevel;stroke-opacity:0.15;}
	.st7{fill:none;stroke:#FFFFFF;stroke-width:3;stroke-linejoin:bevel;stroke-opacity:2.000000e-02;}
	.st8{fill:#FFFFFF;}
	.st9{font-family:'Calibri-Bold';}
	.st10{font-size:64.0952px;}
	.st11{font-size:21.3651px;}
</style>
<linearGradient id="SVGID_1_" gradientUnits="userSpaceOnUse" x1="-25.4682" y1="229.1747" x2="314.469" y2="97.6517" gradientTransform="matrix(1 0 0 -1 0 302)">
	<stop  offset="0" style="stop-color:#F09343"/>
	<stop  offset="1" style="stop-color:#FF2CFB"/>
</linearGradient>
<path class="st0" d="M9.2,1.1L1,7.5v160.6l338.8,130.7l8.1-6.3L339,138.8L9.2,1.1z"/>
<path class="st1" d="M9.2,1.1L1,7.5v160.6l338.8,130.7l8.1-6.3L339,138.8L9.2,1.1z"/>
<g>
	<path class="st2" d="M9.2,1.1L1,7.5v160.6l338.8,130.7l8.1-6.3L339,138.8L9.2,1.1z"/>
	
		<linearGradient id="SVGID_00000127737303949210457670000017081804359132702109_" gradientUnits="userSpaceOnUse" x1="-18.1495" y1="231.8289" x2="321.7875" y2="100.3059" gradientTransform="matrix(1 0 0 -1 0 302)">
		<stop  offset="0" style="stop-color:#F09343"/>
		<stop  offset="1" style="stop-color:#FF2CFB"/>
	</linearGradient>
	
		<path style="fill:url(#SVGID_00000127737303949210457670000017081804359132702109_);stroke:#FFFFFF;stroke-width:2;stroke-linejoin:bevel;" d="
		M348,291.5V131.8L10,1.5v159.7L348,291.5z"/>
	<path class="st4" d="M1,168l9-7"/>
	<g>
		<defs>
			<rect id="SVGID_00000054980573397814376530000012784425875098595757_" x="10" y="2" width="339" height="291.5"/>
		</defs>
		<clipPath id="SVGID_00000013152904191921946340000000681028307778371480_">
			<use xlink:href="#SVGID_00000054980573397814376530000012784425875098595757_"  style="overflow:visible;"/>
		</clipPath>
		<g style="clip-path:url(#SVGID_00000013152904191921946340000000681028307778371480_);">
			<path class="st6" d="M359,139.8L10,5.2"/>
			<path class="st7" d="M359,136.6L10,2"/>
			<path class="st6" d="M359,146.2L10,11.6"/>
			<path class="st7" d="M359,143L10,8.4"/>
			<path class="st6" d="M359,152.6L10,18"/>
			<path class="st7" d="M359,149.4L10,14.8"/>
			<path class="st6" d="M359,159L10,24.4"/>
			<path class="st7" d="M359,155.8L10,21.2"/>
			<path class="st6" d="M359,165.4L10,30.8"/>
			<path class="st7" d="M359,162.2L10,27.6"/>
			<path class="st6" d="M359,171.8L10,37.2"/>
			<path class="st7" d="M359,168.6L10,34"/>
			<path class="st6" d="M359,178.2L10,43.6"/>
			<path class="st7" d="M359,175L10,40.4"/>
			<path class="st6" d="M359,184.6L10,50"/>
			<path class="st7" d="M359,181.4L10,46.8"/>
			<path class="st6" d="M359,191L10,56.4"/>
			<path class="st7" d="M359,187.8L10,53.2"/>
			<path class="st6" d="M359,197.4L10,62.8"/>
			<path class="st7" d="M359,194.2L10,59.6"/>
			<path class="st6" d="M359,203.8L10,69.2"/>
			<path class="st7" d="M359,200.6L10,66"/>
			<path class="st6" d="M359,210.3L10,75.6"/>
			<path class="st7" d="M359,207.1L10,72.4"/>
			<path class="st6" d="M359,216.7L10,82.1"/>
			<path class="st7" d="M359,213.5L10,78.9"/>
			<path class="st6" d="M359,223.1L10,88.5"/>
			<path class="st7" d="M359,219.9L10,85.3"/>
			<path class="st6" d="M359,229.5L10,94.9"/>
			<path class="st7" d="M359,226.3L10,91.7"/>
			<path class="st6" d="M359,235.9L10,101.3"/>
			<path class="st7" d="M359,232.7L10,98.1"/>
			<path class="st6" d="M359,242.3L10,107.7"/>
			<path class="st7" d="M359,239.1L10,104.5"/>
			<path class="st6" d="M359,248.7L10,114.1"/>
			<path class="st7" d="M359,245.5L10,110.9"/>
			<path class="st6" d="M359,255.1L10,120.5"/>
			<path class="st7" d="M359,251.9L10,117.3"/>
			<path class="st6" d="M359,261.5L10,126.9"/>
			<path class="st7" d="M359,258.3L10,123.7"/>
			<path class="st6" d="M359,267.9L10,133.3"/>
			<path class="st7" d="M359,264.7L10,130.1"/>
			<path class="st6" d="M359,274.3L10,139.7"/>
			<path class="st7" d="M359,271.1L10,136.5"/>
			<path class="st6" d="M359,280.7L10,146.1"/>
			<path class="st7" d="M359,277.5L10,142.9"/>
			<path class="st6" d="M359,287.1L10,152.5"/>
			<path class="st7" d="M359,283.9L10,149.3"/>
			<path class="st6" d="M359,293.5L10,158.9"/>
			<path class="st7" d="M359,290.3L10,155.7"/>
		</g>
	</g>
</g>
<text transform="matrix(1.1759 0.4702 -0.1201 0.9928 31.9566 78.5489)" class="st8 st9 st10">170+</text>
<text transform="matrix(1.1759 0.4702 -0.1201 0.9928 31.9563 122.366)" class="st8 st9 st11">PROJECTS</text>
</svg>
